svg/switch.svg

<?xml version="1.0" encoding="UTF-8"?>
<svg xmlns="http://www.w3.org/2000/svg" xmlns:xlink="http://www.w3.org/1999/xlink" width="32" height="32" viewBox="0 0 32 32">
<path fill-rule="evenodd" fill="rgb(0%, 0%, 0%)" fill-opacity="1" d="M 21.292969 3.292969 C 21.683594 2.902344 22.316406 2.902344 22.707031 3.292969 L 28.707031 9.292969 C 29.097656 9.683594 29.097656 10.316406 28.707031 10.707031 L 22.707031 16.707031 C 22.457031 16.976562 22.082031 17.085938 21.726562 16.996094 C 21.375 16.90625 21.097656 16.628906 21.007812 16.273438 C 20.914062 15.917969 21.023438 15.542969 21.292969 15.292969 L 25.585938 11 L 10 11 C 9.449219 11 9 10.550781 9 10 C 9 9.449219 9.449219 9 10 9 L 25.585938 9 L 21.292969 4.707031 C 20.902344 4.316406 20.902344 3.683594 21.292969 3.292969 M 10.707031 15.292969 C 11.097656 15.683594 11.097656 16.316406 10.707031 16.707031 L 6.414062 21 L 22 21 C 22.550781 21 23 21.449219 23 22 C 23 22.550781 22.550781 23 22 23 L 6.414062 23 L 10.707031 27.292969 C 10.976562 27.542969 11.085938 27.917969 10.996094 28.273438 C 10.90625 28.625 10.628906 28.902344 10.273438 28.992188 C 9.917969 29.085938 9.542969 28.976562 9.292969 28.707031 L 3.292969 22.707031 C 2.902344 22.316406 2.902344 21.683594 3.292969 21.292969 L 9.292969 15.292969 C 9.683594 14.902344 10.316406 14.902344 10.707031 15.292969 "/>
</svg>

<svg role="img" viewBox="0 0 32 32" xmlns="http://www.w3.org/2000/svg"><path d="M21.293 3.293a1 1 0 0 1 1.414 0l6 6a1 1 0 0 1 0 1.414l-6 6a.999.999 0 0 1-1.7-.434.99.99 0 0 1 .286-.98L25.586 11H10c-.55 0-1-.45-1-1s.45-1 1-1h15.586l-4.293-4.293a1 1 0 0 1 0-1.414m-10.586 12a1 1 0 0 1 0 1.414L6.414 21H22c.55 0 1 .45 1 1s-.45 1-1 1H6.414l4.293 4.293a.999.999 0 0 1-.434 1.7.99.99 0 0 1-.98-.286l-6-6a1 1 0 0 1 0-1.414l6-6a1 1 0 0 1 1.414 0" fill="rgb(0%, 0%, 0%)" fill-rule="evenodd"/></svg>
